X:119
T:Quick Step. JGi.119
M:6/8
L:1/8
Q:3/8=110
S:Joshua Gibbons MS,1823,Tealby,Lincs.
R:quick step
O:Tealby,Lincolnshire
Z:VMP/R.Greig, 2009
K:C
e/f/|gec cBc|ecA A2c|GEc AFf|dBGG2e/f/|
gec cBc|ecAA2a|gea (fd)g|eccc2:|
E/F/|G>AG GA_B|AFFF2(d/e/)|fde f(dc)|BGG G2e/f/|
gec cBc|ecAf2a|gaf gec|Gccc2|]

